resources/icons/qr-code.svg

<svg xmlns="http://www.w3.org/2000/svg" viewBox="0 0 20 20"><style>.qr-code-st0{fill:none;stroke:currentColor;stroke-width:2;stroke-linecap:round;stroke-linejoin:round}</style><path class="qr-code-st0" d="M1.05 10.65v1.2h1.2M1.05 1.05h4.5v4.5h-4.5zM14.25 1.05h4.8v4.8h-4.8zM1.05 14.25h4.8v4.8h-4.8zM10.05 1.05h1.8M8.25 1.05v2.4h1.8M11.85 3.35v2.4h-3.6M1.05 8.25h4.8v1.2M4.65 11.75h1.1M19.05 19.05h-2.4v-2.4h2.4v-2.4h-2.4M11.85 19.05h-3.6v-4.8M14.25 14.25v4.8M10.65 14.25h1.2v2.4h-1.2M8.25 10.65v1.2h1.2M11.85 11.75h2.4M12.85 11.75v-2.4M8.25 8.25h2.4v1.2M19.05 8.25v1.1M19.05 11.25v.5M15.35 8.25v1.2h1.2v1.8"/></svg>

<svg xmlns="http://www.w3.org/2000/svg" viewBox="0 0 20 20"><path d="M1.05 10.65v1.2h1.2m-1.2-10.8h4.5v4.5h-4.5zm13.2 0h4.8v4.8h-4.8zm-13.2 13.2h4.8v4.8h-4.8zm9-13.2h1.8m-3.6 0v2.4h1.8m1.8-.1v2.4h-3.6m-7.2 2.5h4.8v1.2m-1.2 2.3h1.1m13.3 7.3h-2.4v-2.4h2.4v-2.4h-2.4m-4.8 4.8h-3.6v-4.8m6 0v4.8m-3.6-4.8h1.2v2.4h-1.2m-2.4-6v1.2h1.2m2.4-.1h2.4m-1.4 0v-2.4m-4.6-1.1h2.4v1.2m8.4-1.2v1.1m0 1.9v.5m-3.7-3.5v1.2h1.2v1.8" fill="none" stroke="currentColor" stroke-width="2" stroke-linecap="round" stroke-linejoin="round"/></svg>
